Newaita-dark/actions/24/view-certificate.svg

<svg height="24" viewBox="0 0 24 24" width="24" xmlns="http://www.w3.org/2000/svg"><g fill="#e0e0e0"><path d="m3.96875 4.15625c-1.097656 0-1.984375.886719-1.984375 1.984375v11.90625c0 1.101563.886719 1.984375 1.984375 1.984375h15.875c1.101562 0 1.988281-.882812 1.988281-1.984375v-11.90625c0-1.097656-.886719-1.984375-1.988281-1.984375zm.992188 1.984375h13.890624c.550782 0 .992188.441406.992188.992187v9.921876c0 .550781-.441406.992187-.992188.992187h-13.890624c-.550782 0-.992188-.441406-.992188-.992187v-9.921876c0-.550781.441406-.992187.992188-.992187zm0 0"/><path d="m8.890625 8.621094c-1.078125 0-1.945313.886718-1.945313 1.984375v1.488281c-.550781 0-.992187.445312-.992187.992188v1.488281c0 .550781.441406.992187.992187.992187h3.96875c.550782 0 .992188-.441406.992188-.992187v-1.488281c0-.546876-.441406-.992188-.992188-.992188v-1.488281c0-1.097657-.867187-1.984375-1.941406-1.984375zm.039063.992187c.550781 0 .992187.445313.992187.992188v1.488281h-1.984375v-1.488281c0-.546875.441406-.992188.992188-.992188zm0 0"/><path d="m12.15625 8.125h5.457031c.136719 0 .246094.113281.246094.25v.496094c0 .136718-.109375.246094-.246094.246094h-5.457031c-.136719 0-.25-.109376-.25-.246094v-.496094c0-.136719.113281-.25.25-.25zm0 0"/><path d="m14.140625 11.101562h3.472656c.136719 0 .246094.113282.246094.25v.496094c0 .136719-.109375.246094-.246094.246094h-3.472656c-.136719 0-.25-.109375-.25-.246094v-.496094c0-.136718.113281-.25.25-.25zm0 0"/><path d="m14.140625 14.078125h3.472656c.136719 0 .246094.113281.246094.25v.496094c0 .136719-.109375.246093-.246094.246093h-3.472656c-.136719 0-.25-.109374-.25-.246093v-.496094c0-.136719.113281-.25.25-.25zm0 0"/></g></svg>

<?xml version="1.0" encoding="UTF-8"?>
<svg xmlns="http://www.w3.org/2000/svg" xmlns:xlink="http://www.w3.org/1999/xlink" width="24px" height="24px" viewBox="0 0 24 24" version="1.1">
<g id="surface1">
<path style=" stroke:none;fill-rule:nonzero;fill:rgb(87.843138%,87.843138%,87.843138%);fill-opacity:1;" d="M 3.96875 4.15625 C 2.871094 4.15625 1.984375 5.042969 1.984375 6.140625 L 1.984375 18.046875 C 1.984375 19.148438 2.871094 20.03125 3.96875 20.03125 L 19.84375 20.03125 C 20.945312 20.03125 21.832031 19.148438 21.832031 18.046875 L 21.832031 6.140625 C 21.832031 5.042969 20.945312 4.15625 19.84375 4.15625 Z M 4.960938 6.140625 L 18.851562 6.140625 C 19.402344 6.140625 19.84375 6.582031 19.84375 7.132812 L 19.84375 17.054688 C 19.84375 17.605469 19.402344 18.046875 18.851562 18.046875 L 4.960938 18.046875 C 4.410156 18.046875 3.96875 17.605469 3.96875 17.054688 L 3.96875 7.132812 C 3.96875 6.582031 4.410156 6.140625 4.960938 6.140625 Z M 4.960938 6.140625 "/>
<path style=" stroke:none;fill-rule:nonzero;fill:rgb(87.843138%,87.843138%,87.843138%);fill-opacity:1;" d="M 8.890625 8.621094 C 7.8125 8.621094 6.945312 9.507812 6.945312 10.605469 L 6.945312 12.09375 C 6.394531 12.09375 5.953125 12.539062 5.953125 13.085938 L 5.953125 14.574219 C 5.953125 15.125 6.394531 15.566406 6.945312 15.566406 L 10.914062 15.566406 C 11.464844 15.566406 11.90625 15.125 11.90625 14.574219 L 11.90625 13.085938 C 11.90625 12.539062 11.464844 12.09375 10.914062 12.09375 L 10.914062 10.605469 C 10.914062 9.507812 10.046875 8.621094 8.972656 8.621094 Z M 8.929688 9.613281 C 9.480469 9.613281 9.921875 10.058594 9.921875 10.605469 L 9.921875 12.09375 L 7.9375 12.09375 L 7.9375 10.605469 C 7.9375 10.058594 8.378906 9.613281 8.929688 9.613281 Z M 8.929688 9.613281 "/>
<path style=" stroke:none;fill-rule:nonzero;fill:rgb(87.843138%,87.843138%,87.843138%);fill-opacity:1;" d="M 12.15625 8.125 L 17.613281 8.125 C 17.75 8.125 17.859375 8.238281 17.859375 8.375 L 17.859375 8.871094 C 17.859375 9.007812 17.75 9.117188 17.613281 9.117188 L 12.15625 9.117188 C 12.019531 9.117188 11.90625 9.007812 11.90625 8.871094 L 11.90625 8.375 C 11.90625 8.238281 12.019531 8.125 12.15625 8.125 Z M 12.15625 8.125 "/>
<path style=" stroke:none;fill-rule:nonzero;fill:rgb(87.843138%,87.843138%,87.843138%);fill-opacity:1;" d="M 14.140625 11.101562 L 17.613281 11.101562 C 17.75 11.101562 17.859375 11.214844 17.859375 11.351562 L 17.859375 11.847656 C 17.859375 11.984375 17.75 12.09375 17.613281 12.09375 L 14.140625 12.09375 C 14.003906 12.09375 13.890625 11.984375 13.890625 11.847656 L 13.890625 11.351562 C 13.890625 11.214844 14.003906 11.101562 14.140625 11.101562 Z M 14.140625 11.101562 "/>
<path style=" stroke:none;fill-rule:nonzero;fill:rgb(87.843138%,87.843138%,87.843138%);fill-opacity:1;" d="M 14.140625 14.078125 L 17.613281 14.078125 C 17.75 14.078125 17.859375 14.191406 17.859375 14.328125 L 17.859375 14.824219 C 17.859375 14.960938 17.75 15.070312 17.613281 15.070312 L 14.140625 15.070312 C 14.003906 15.070312 13.890625 14.960938 13.890625 14.824219 L 13.890625 14.328125 C 13.890625 14.191406 14.003906 14.078125 14.140625 14.078125 Z M 14.140625 14.078125 "/>
</g>
</svg>
